X:1
T:Title
%%score { 1 | 2 }
L:1/8
M:6/8
K:Ab
V:1 treble nm="Grand Piano"
V:2 bass 
V:1
 z3 z2[Q:1/4=78] [CE] | [CE][CF][CG] [CA][DB][Ec] | edc [=DB]2 [DF] | FEG dcB | [Ec]3- [Ec]2 [CE] | %5
 [CE][CF][CG] [CA][DB][Ec] |[M:5/8] edc [=DB]2 |[M:1/8] [=DF] |[M:3/4] FE Gd cB | %9
[M:5/8] [CA]-[CA]- [CA]3 |[M:1/8] z |[M:3/4] [ce][Bd] [Ac] .[GB]3 | [Bd][Ac] [GB] A2 A | %13
 cB A[FB] [FA][DF] | [CE]4- [CE][CE] | [CE][CF] [CG][CA] [DB][Ec] | ed c [=DB]2 [DF] | FE Gd cB | %18
[M:5/8] [CA]-[CA]- [CA]3 |] %19
V:2
 z3 z2 [A,,A,] | [A,,A,][A,,A,][A,,A,] [A,,A,][A,,A,][A,,A,] | %2
 [F,=A,F][F,A,F][F,A,E] [B,,_A,]2 [B,,A,] | [E,G,D][E,G,D][E,B,D] [E,A,F][E,A,E][E,G,D] | %4
 [A,,A,]3- [A,,A,]2 [A,,A,] | [A,,A,][A,,A,][A,,A,] [A,,A,][A,,A,][A,,A,] | %6
[M:5/8] [F,=A,F][F,A,F][F,A,E] [B,,_A,]2 |[M:1/8] [B,,A,] | %8
[M:3/4] [E,G,D][E,G,D] [E,B,D][E,B,F] [E,A,E][E,G,D] |[M:5/8] [A,,A,]-[A,,A,]- [A,,A,]3 | %10
[M:1/8] [E,E] |[M:3/4] [E,E][E,E] [E,E] [E,E]2 [E,E] | [E,E][E,E] [E,D] [A,CE]2 [A,CE] | %13
 [A,E][=E,G,D] [F,A,C][D,D] [D,D][D,A,] | [A,,A,]4- [A,,A,][A,,A,] | %15
 [A,,A,][A,,A,] [A,,A,][A,,A,] [A,,A,][A,,A,] | [F,=A,F][F,A,F] [F,A,E] [B,,_A,]2 [B,,A,] | %17
 [E,G,D][E,G,D] [E,B,D][E,A,F] [E,A,E][E,G,D] |[M:5/8] [A,,E,]-[A,,E,]- [A,,E,]3 |] %19

